_uploads/pattern-hero-right.svg

<svg width="220" height="360" fill="none" xmlns="http://www.w3.org/2000/svg"><path fill-rule="evenodd" clip-rule="evenodd" d="M160 0h60v60h-60V0zm0 180h60v180H100v-60h60V180zM20 240h80v60H40v-40H20v-20zm0 0v-20H0v20h20zm80-60h20v20h-20v-20z" fill="#000"/><path fill-rule="evenodd" clip-rule="evenodd" d="M140 80h-20v20h20v20h20v20h20v20h-20v20h-20v20h-20v20h-20v20h20v-20h20v20h20v-20h-20v-20h20v-20h20v-20h20v20h20v-20h-20v-20h20v-20h-20v20h-20v-20h-20v-20h-20V80zM0 200h20v20H0v-20zm20 20h20v20H20v-20zm20 80H20v20h20v-20z" fill="#F1F1F1"/></svg>

<svg width="220" height="360" viewBox="0 0 220 360" fill="none" xmlns="http://www.w3.org/2000/svg">
<path fill-rule="evenodd" clip-rule="evenodd" d="M160 0H220V60H160V0ZM160 180H220V240V300V360H160H100V300H160V240V180ZM20 240H40H100V300H40V260H20V240ZM20 240V220H0V240H20ZM100 180H120V200H100V180Z" fill="black"/>
<path fill-rule="evenodd" clip-rule="evenodd" d="M140 80H120V100H140V120H160V140H180V160H160V180H140V200H120V220H100V240H120V220H140V240H160V220H140V200H160V180H180V160H200V180H220V160H200V140H220V120H200V140H180V120H160V100H140V80ZM0 200H20V220H0V200ZM20 220H40V240H20V220ZM40 300H20V320H40V300Z" fill="#F1F1F1"/>
</svg>
